X: 321
T: Chan jiao
L: 1/8
M: 2/4
K: G
z A A A [I:setbarnb 1]| 
d B/ d/ B A | 
z d B A | 
F EG2 | 
z F E D | 
d B/ d/ B E | 
F A E B, | 
D3z | 
G G F E | 
D EG2 | 
A> G F E | 
D> EG2 | 
z A A F | 
z B G A | 
B> d B E | 
F A E B, | 
D4 |]

@@@ Tune index: 9195
